icons/mobile/24/svg/page-portrait-24.svg

<svg width="24" height="24" viewBox="0 0 24 24" fill="none" xmlns="http://www.w3.org/2000/svg">
<path fill-rule="evenodd" clip-rule="evenodd" d="M12.5 2.00523H12.7344C13.3522 2.00533 13.9459 2.25006 14.3838 2.68687L18.8115 7.10191C19.2515 7.54091 19.5 8.13812 19.5 8.76012V18.4798C19.5 20.0398 18.3931 21.3538 16.8701 21.6039C15.2651 21.8669 13.626 22.0013 12 22.0013C10.357 22.0013 8.70291 21.865 7.08691 21.597C5.58795 21.35 4.5 20.0397 4.5 18.4828V5.46226C4.5 3.92032 5.58895 2.62428 7.08887 2.38121C8.86787 2.09021 10.685 1.97523 12.5 2.00523ZM12.5 3.75426C10.78 3.72526 9.05805 3.83179 7.37109 4.10777C6.73109 4.21277 6.25 4.79329 6.25 5.46129V18.4828C6.25 19.1668 6.73207 19.7625 7.37207 19.8685C10.4 20.3705 13.547 20.3733 16.5869 19.8763C17.2609 19.7653 17.75 19.1778 17.75 18.4798V8.48765H13.5C12.948 8.48765 12.5 8.03968 12.5 7.48668V3.75426Z" fill="black"/>
</svg>

<!-- This Source Code Form is subject to the terms of the Mozilla Public
   - License, v. 2.0. If a copy of the MPL was not distributed with this
   - file, You can obtain one at http://mozilla.org/MPL/2.0/. -->
<svg xmlns="http://www.w3.org/2000/svg" width="24" height="24" fill="none" viewBox="0 0 24 24">
    <path fill="#000" fill-rule="evenodd" d="M12.5 2.005h.234c.618 0 1.212.245 1.65.682l4.427 4.415c.44.439.689 1.036.689 1.658v9.72a3.144 3.144 0 0 1-2.63 3.124 30.1 30.1 0 0 1-9.783-.007C5.587 21.35 4.5 20.04 4.5 18.483V5.463c0-1.543 1.089-2.839 2.589-3.082a30.5 30.5 0 0 1 5.411-.376m0 1.75a29 29 0 0 0-5.129.353c-.64.105-1.121.685-1.121 1.353v13.022c0 .684.482 1.28 1.122 1.386a28.5 28.5 0 0 0 9.215.007 1.4 1.4 0 0 0 1.163-1.396V8.488H13.5a1 1 0 0 1-1-1.001z" clip-rule="evenodd" />
</svg>
